teeny/outline/at.svg

<svg width="15" height="15" viewBox="0 0 15 15" fill="none" xmlns="http://www.w3.org/2000/svg">
<path d="M10.5 7.5C10.5 9.15685 9.15685 10.5 7.5 10.5C5.84315 10.5 4.5 9.15685 4.5 7.5C4.5 5.84315 5.84315 4.5 7.5 4.5C9.15685 4.5 10.5 5.84315 10.5 7.5ZM10.5 7.5V8.5C10.5 9.60457 11.3954 10.5 12.5 10.5C13.2095 10.5 13.8328 10.1305 14.1878 9.57343C14.3855 9.26329 14.5 8.89502 14.5 8.5V7.5C14.5 3.63401 11.366 0.5 7.5 0.5C3.63401 0.5 0.5 3.63401 0.5 7.5C0.5 11.366 3.63401 14.5 7.5 14.5C8.98725 14.5 10.3662 14.0362 11.5 13.2453" stroke="black"/>
</svg>

<svg viewBox="0 0 15 15" xmlns="http://www.w3.org/2000/svg"><path fill="none" stroke="#000" d="M10.5 7.5c0 1.65-1.35 3-3 3 -1.66 0-3-1.35-3-3 0-1.66 1.34-3 3-3 1.65 0 3 1.34 3 3Zm0 0v1c0 1.1.89 2 2 2 .7 0 1.33-.37 1.68-.93 .19-.32.31-.68.31-1.08v-1c0-3.87-3.14-7-7-7 -3.87 0-7 3.13-7 7 0 3.86 3.13 7 7 7 1.48 0 2.86-.47 4-1.26"/></svg>
